resources/cube.svg

<?xml version="1.0" encoding="utf-8"?>
<!-- Generator: Adobe Illustrator 16.0.0, SVG Export Plug-In . SVG Version: 6.00 Build 0)  -->
<!DOCTYPE svg PUBLIC "-//W3C//DTD SVG 1.1//EN" "http://www.w3.org/Graphics/SVG/1.1/DTD/svg11.dtd">
<svg version="1.1" id="Layer_1" xmlns="http://www.w3.org/2000/svg" xmlns:xlink="http://www.w3.org/1999/xlink" x="0px" y="0px"
	 width="1792px" height="1792px" viewBox="0 0 1792 1792" enable-background="new 0 0 1792 1792" xml:space="preserve">
<path fill="#662900" d="M896,1629l640-349V644L896,877V1629z M832,764l698-254L832,256L134,510L832,764z M1664,512v768
	c0,23.334-6,45-18,65s-28.334,35.667-49,47l-704,384c-18.667,10.667-39,16-61,16s-42.334-5.333-61-16L67,1392
	c-20.667-11.333-37-27-49-47s-18-41.666-18-65V512c0-26.666,7.666-51,23-73c15.333-22,35.666-37.666,61-47l704-256
	c14.666-5.333,29.333-8,44-8c14.666,0,29.333,2.667,44,8l704,256c25.333,9.334,45.666,25,61,47C1656.333,461,1664,485.334,1664,512z
	"/>
</svg>

<svg width="1792" height="1792" viewBox="0 0 1792 1792" xmlns="http://www.w3.org/2000/svg"><path d="M896 1629l640-349v-636l-640 233v752zm-64-865l698-254-698-254-698 254zm832-252v768q0 35-18 65t-49 47l-704 384q-28 16-61 16t-61-16l-704-384q-31-17-49-47t-18-65v-768q0-40 23-73t61-47l704-256q22-8 44-8t44 8l704 256q38 14 61 47t23 73z"/></svg>
